X: 278
T: Qi chuma
L: 1/16
M: 2/4
K: C
d2 d e d2 c2 [I:setbarnb 1]| 
d2> e2d4 | 
A G F2G4 | 
c2 A G c2 A G | 
A G F2G4 | 
c2> d2 c3 d | 
c2> d2 e2 d2- | 
d4d e d c | 
A2 A G2< E2 G | 
c2> A2 G A E2 | 
D8 |]

@@@ Tune index: 9152
